X: 1
T:Kitty of Oulart
M:6/8
L:1/8
R: double jig
Z: Transcribed by Frederick Faller
Q: 300
D: The Heart of Cape Bretton, Smithsonian Folkways (middle part not played
D:n recording)
K:D
(ua/g/) | (vfa)d(fe)d | (vfa)d (fe)d | b2g a2f | efe efg | (fa)d (fe)d |
 (fa)d (fe)d | b2 g afa | ded d2:|
uA | vd>cd efg | fed cBA | (vB<d)B A(FD) | (EF)E E2A | d>cd efg | fed cB
A | (vB<d)B A(FA) | (DE)D D2:|
